X:14954
T:Schottis fr Barseb\"ack
R:Schottische
O:Sweden
M:4/4
K:D
AG|\
F2AG E2GF|D2FA d2d2|cege cdec|dfdB A2AG|\
G2AG E2GF|D2FA d2d2|
cege cdec|d6::\
A2|\
Affd A2AA|Affd B2B2|
Bgge eccA|Aaaf fddA|\
Affd A2AA|Affd B2BB|Bgge cdef|d2d2 d2:|
